X:1
T:Hostis Herodes impie
T:Pietro Pontio [1532-1595]
T:From "Hymni solemniores ad vespertinas horas canendi" 1596
T:Hostis Herodes impie
T:de Epiphania
C:Pietro Pontio [1532-1595]
Z:From "Hymni solemniores ad
Z:vespertinas horas canendi" 1596
%%score [ 1 2 3 4 ]
L:1/8
M:4/4
K:C
V:1 treble nm="Soprano" snm="S."
V:2 alto2 nm="Alto" snm="A."
V:3 treble-8 transpose=-12 nm="P3" snm="T."
V:4 bass3 nm="Bass" snm="B."
V:1
 z18 | z16 | z20 | z16 ||[M:4/4] F4 G4 | A3 B cA c2- | c2 B2 c2 A2- | AG G4 F2 | G8 | z8 | z8 | %11
w: ||||I- bant|ma- * * * *|* gi quam vi-|* * * de-|rant,|||
 z8 | z4 c4 | B2 B2 A3 B | c4 G2 G2 | A4 G4 | z8 | c4 c4 | d4 e4 | c4 d4 | c3 B AG A2- | A2 G2 A4 | %22
w: |stel-|lam se- quen- *|* tes pre-|vi- am,||lu- men|re- qui-|runt, _|lu- * * * *|* mi- ne|
 A8 | B3 B B2 B2 | A4 z4 | z8 | d4 d2 c2 | B2 B2 AB cd | e4 f3 e | d6 d2 | B8 || z18 | z16 | z20 | %34
w: re-|qui- runt, lu- mi-|ne||de- um sa-|ten- tur mu- * * *||* ne-|re.||||
 z16 ||[M:4/4] F8 | G8 | A8 | A3 B c4 | c8 | G4 A2 F2 | G4 z4 | c4 B2 B2 | AB c3 B/A/ GA | %44
w: |No-|vum|_|ge- * *|nus|po- ten- ti-|ae,|a- aquae ru-|be- * * * * * *|
 B2 G2 A2 A2 | G4 z4 | c4 d2 d2 | e3 d cB c2- | c2 e2 d3 c | B2 B2 c4 | z4 c4 | c2 c2 d4 | %52
w: * runt hy- dri-|ae.|Vi- num- que|ius- * * * *|* sa son- *|* de- re,|vi-|num- que ius-|
 e3 f g2 e2- | ed d4 c2 | d2 f2 f2 f2 | e4 d2 d2 | c2 A2 B4 | z2 d2 d2 c2- | c2 B2 B3 c | %59
w: sa- * * son-|* * * de-|re mu- ta- vit|un- da o-|ri- gi- nem,|mu- ta- vit|* un- da _|
 d2 d2 d2 A2 | B8 || z18 | z16 | z20 | z16 | z10 |] %66
w: _ o- ri- gi-|nem.||||||
V:2
 z18 | z16 | z20 | z16 ||[M:4/4][K:treble] z8 | z8 | z8 | z8 | z8 | C4 D4 | E3 F G4 | G2 D3 EFG | %12
w: |||||||||I- bant|ma- * *|gi quam _ _ _|
 A2 G4 F2 | G2 G,2 D4 | z8 | F4 E4 | D2 G4 F2 | E2 A2 G4- | G4 z4 | z8 | C4 C2 D2 | E3 D C2 A,2- | %22
w: _ vi- de-|* * rant,||stel- lam|se- quen- tes|pre- vi- am,|_||lu- men re-|qui- * e- runt|
 A,2 D4 C2 | D4 z2 D2 | D2 C2 B,A, B,C | D2 A,2 C2 B,A, | B,2 A,2 z2 E2- | E2 D4 C2 | G4 A2 A2- | %29
w: _ lu- mi-|ne de-|um sa- ten- * * *|* tur nu- * *|ne- re, de-|* um sa-|ten- tur mu-|
 AG G4 F2 | G8 || z18 | z16 | z20 | z16 ||[M:4/4] z8 | C4 B,2 C2 | A,2 D2 C2 D2 | E2 F3 GAF | %39
w: * * * ne-|re.||||||No- vum ge-|nus po- ten- ti-|ae, no- * * *|
 G2 A2 G2 G,2- | G,2 C4 C2 | D2 D2 E2 D2 | F4 z4 | F4 E2 E2 | D3 E F2 D2 | E2 E2 F2 F2- | %46
w: vum ge- nus po-|* ten- ti-|ae, po- ten- ti-|ae|a- quae ru-|bes- * * cunt|hy- dri- ae a-|
 F2 E2 D2 G2- | G2 E2 FG A2- | AG G4 F2 | G2 G2 A4 | G3 F E2 A2- | A2 G2 ^F2 G2 | E2 G2 G2 G2 | %53
w: * quae ru- bes-|* cunt hy- * *|* * * dri-|ae, vi- num-|que _ _ ius-|* sa fon- de-|pre, vi- num- que|
 B2 B2 A3 A | A4 z2 A2- | A2 G4 G2 | E3 F G4 | D3 E F2 F2 | G3 F/E/ DG, G2- | G2 FE F2 ^F2 | G8 || %61
w: ius- sa fon- de-|re mu-|* ta- vit|un- * *|da _ _ o-|ri- * * * * *|* * * * gi-|nem.|
 z18 | z16 | z20 | z16 | z10 |] %66
w: |||||
V:3
 F2 G2 (A2 c2) c2 G2 A2 F2 G2 | c2 B2 A2 c2 G2 A2 F2 G2 | c2 c2 d2 e2 c2 d2 (c2 B2) (A2 G2) | %3
w: Hos- tis He- * ro- des im- pi- e,|Chris- tum ve- ni- re quid ti- mes?|Non e- ri- pit mor- ta- li- * a, _|
 G2 G2 F2 E2 F2 A2 F2 G2 ||[M:4/4] z8 | z4 F4 | G4 A3 B | c3 B A4 | G2 c2 c2 B2 | A2 c2 B2 A2 | %10
w: qui reg- na dat cae- les- ti- a.||I-|bant ma- *||gi quam vi- de-|rant, i- bant ma-|
 c2 B2 e3 e | d2 B2 A2 d2 | cd e4 c2 | d3 e fd f2- | f2 c2 e4 | z4 c4 | B2 B2 A3 B | c2 f2 e2 c2- | %18
w: gi quam vi- de-|rant, i- bant ma-|gi _ quam vi-|de- * * * *|* * rant,|stel-|lam se- quen- *|* * tes pre-|
 cB B A/B/ c2 c2 | A2 a4 g2 | e4 z4 | z4 z2 c2 | c2 d2 e3 f | g2 g2 d3 e | f2 e2 d4 | z4 z2 g2 | %26
w: * * * * * * vi-|am, pre- vi-|am.|Lu-|men re- qui- *|* runt, lu- *|* mi- ne|de-|
 g2 f2 e3 f | g2 G2 A3 A | B2 c2 c2 c2 | B2 B2 A3 A | G8 || F2 G2 (A2 c2) c2 G2 A2 F2 G2 | %32
w: um sa- ten- *|* tur mu- ne-|re, de- um sa-|ten- tur mu- ne-|re.|La- va- cra _ pu- ri gur- gi- tis,|
 c2 B2 A2 c2 G2 A2 F2 G2 | c2 c2 d2 e2 c2 d2 (c2 B2) (A2 G2) | G2 G2 F2 E2 F2 A2 F2 G2 || %35
w: cae- les- tis ag- nus at- ti- git,|pec- ca- ta quae non de- tu- * lit, _|nos ab- lu- en- do sus- tu- lit.|
[M:4/4] z8 | z8 | z2 f2 e2 f2 | c2 d2 AB cd | e2 A2 e4 | e4 A2 c2- | c2 BA B4 | A4 z4 | z4 c4 | %44
w: ||No- vum ge-|nus po- ten- * * *|ti- ae, no-|vum ge- nus|_ po- ten- ti-|ae|A-|
 B2 B2 A3 B | c2 B2 d3 c/B/ | AG c4 B2 | c4 z4 | c4 d2 d2 | e3 d cA f2 | d2 e3 dcB | AG c4 B2 | %52
w: quae ru- bes- *|* cunt hy- * *|* * * dri-|ae|vi- num- que|ius- * * * *|sa son- * * *|* * * de-|
 c2 e2 e2 e2 | g2 g2 f2 e2 | d2 d2 d2 d2 | c4 B2 G2 | A3 A G2 B2 | B2 B2 A4 | G6 G2 | A6 A2 | G8 || %61
w: re, vi- num- que|ius- sa- son- de-|re mu- ta- vit|un- da o-|ri- gi- nem mu-|ta- vit nu-|da o-|ri- gi-|nem.|
 F2 G2 (A2 c2) c2 G2 A2 F2 G2 | c2 B2 A2 c2 G2 A2 F2 G2 | c2 c2 d2 e2 c2 d2 c2 B2 (A2 G2) | %64
w: Glo- ri- a _ ti- bi do- mi- ne,|qui ap- pa- ruis- ti ho- di- e,|cum pa- tre et sanc- to spi- ri- tu, *|
 G2 G2 F2 E2 F2 A2 F2 G2 | E2 F2 E2 D2 E2 |] %66
w: in sem- pi- ter- na sae- cu- la.|A- * * men. _|
V:4
 z18 | z16 | z20 | z16 ||[M:4/4][K:bass] z8 | z8 | z8 | C,4 D,4 | E,3 F, G,4 | F,2 A,2 G,2 F,2 | %10
w: |||||||I- bant|ma- * *|gi quam vi- de-|
 E,2 E,2 C,D, E,C, | G,2 G,2 D,3 E, | F,2 E,2 A,3 A, | G,4 z4 | F,4 E,2 E,2 | D,E, F,2 C,D, E,F, | %16
w: rant, i- bant _ _ _|_ ma- gi _|_ quam vi- de-|rant,|Stel- lam se-|quen- * tes _ _ _ _|
 G,4 D,E, F,G, | A,3 B, C2 C2 | G,4 z4 | F,4 F,2 G,2 | A,3 G, F,4 | E,4 F,4- | F,2 E,D, A,3 A, | %23
w: _ pre- * * *|* * * vi-|am.|Lu- men re-|qui- * e-|runt, lu-|* * * * mi-|
 G,8 | z4 G,4 | G,2 F,2 E,3 F, | G,2 D,2 A,4 | G,4 F,2 F,2 | E,2 C,2 F,2 F,2 | G,4 D,3 D, | G,8 || %31
w: ne,|De-|um sa- ten- *|* tur mu-|ne- re, de-|um sa- ten- tur|mu- * ne-|re.|
 z18 | z16 | z20 | z16 ||[M:4/4] z8 | z8 | z8 | z4 F,4 | E,2 F,2 C,3 D, | E,2 C,2 F,2 A,2 | %41
w: |||||||No-|vum ge- nus _|_ po- ten- ti-|
 G,2 G,2 E,2 G,2 | F,2 A,2 G,3 G, | F,4 z4 | z4 F,4 | E,2 E,2 D,3 E, | F,2 C,2 G,3 G, | C,4 z4 | %48
w: ae, no- vum ge-|nus po- ten- ti-|ae|a-|quae ru- bes- *|* cunt hy- dri-|ae|
 z8 | z4 F,4 | G,2 G,2 A,3 G, | F,2 E,2 D,2 G,2 | C,2 C2 C2 C2 | G,2 G,2 A,3 A, | D,8 | z8 | %56
w: |vi-|num- que ius- *|* sa son- de-|re vi- num- que|ius- sa son- de-|re||
 z4 G,4 | G,2 G,2 F,4 | E,3 F, G,2 E,2 | D,6 D,2 | G,8 || z18 | z16 | z20 | z16 | z10 |] %66
w: mu-|ta- vit un-|da _ _ o-|ri- gi-|nem.||||||

